X: 1323
T: Drown Drought.   a Jig.
%R: air, jig
B: Niel Gow & Sons "Complete Repository" v.1 p.32 #3
Z: 2021 John Chambers <jc:trillian.mit.edu>
N: 6-bar phrases
M: 6/8
L: 1/8
K: Bb
% - - - - - - - - - -
% Voice 1 formatted for compactness and proofreading.
V: 1 staves=2
F | (D/E/F).D BFE | TD2B, (D/E/F).D | ECC C2F | (D/E/F).D B>cd | TD2B, (D/E/F).C | D.B,.B, TB,2 :| F | TB>cB fdg | fdB TA2F |
(A/B/c)c Tc2d | Bde fga | bag .f(.b.d) | Tc2B B2F || TB>cB fdg | fdB TA2F | (A/B/c).c Tc2d | Bde fga | bag .f(.b.d) | Tc2B B2 |]
% - - - - - - - - - -
% Voice 2 preserves the book's staff layout.
V: 2 clef=bass middle=d
z | B3 B3 | B3 B3 | c3 c3 | B3 B3 | B3 F3 | B3 B2 :| z | b3 b3 | b3 f3 |
f3 e3 | d3 B3 | d2e f3 | F3 B3 || b3 b3 | b3 d3 | f3 e3 | d3 B3 | d2e f3 | F3 B2 |]


